X: 18943
T: Ingonish
R: jig
M: 6/8
K: Edorian
Bee efg|fef dBA|Bee efg|fdc d3|
Bee efg|fef dBA|B3 Bcd|AGF E3:|
BEE BEE|FEF DFA|BEE BEE|FED E3|
BEE BEE|FEF DFA|B3 Bcd|AGF E3:|

